src/img/icons/responsive_red.svg

<svg 
 xmlns="http://www.w3.org/2000/svg"
 xmlns:xlink="http://www.w3.org/1999/xlink"
 width="25px" height="40px">
<defs>
<filter id="Filter_0">
    <feFlood flood-color="rgb(229, 73, 58)" flood-opacity="1" result="floodOut" />
    <feComposite operator="atop" in="floodOut" in2="SourceGraphic" result="compOut" />
    <feBlend mode="normal" in="compOut" in2="SourceGraphic" />
</filter>

</defs>
<g filter="url(#Filter_0)">
<path fill-rule="evenodd"  fill="rgb(0, 0, 0)"
 d="M21.740,40.994 L3.269,40.994 C1.470,40.994 0.009,39.556 0.009,37.787 L0.009,4.101 C0.009,2.331 1.470,0.892 3.269,0.892 L21.740,0.892 C23.538,0.892 24.999,2.331 24.999,4.101 L24.999,37.787 C24.999,39.556 23.538,40.994 21.740,40.994 ZM12.504,39.791 C13.477,39.791 14.270,39.011 14.270,38.054 C14.270,37.097 13.477,36.316 12.504,36.316 C11.532,36.316 10.738,37.097 10.738,38.054 C10.738,39.011 11.532,39.791 12.504,39.791 ZM15.492,3.822 C15.492,3.384 15.134,3.031 14.688,3.031 L10.321,3.031 C9.875,3.031 9.517,3.384 9.517,3.822 L9.517,3.844 C9.517,4.282 9.875,4.635 10.321,4.635 L14.688,4.635 C15.134,4.635 15.492,4.282 15.492,3.844 L15.492,3.822 ZM22.283,7.309 C22.283,7.015 22.039,6.774 21.740,6.774 L3.269,6.774 C2.970,6.774 2.726,7.015 2.726,7.309 L2.726,34.578 C2.726,34.872 2.970,35.112 3.269,35.112 L21.740,35.112 C22.039,35.112 22.283,34.872 22.283,34.578 L22.283,7.309 ZM19.572,32.439 L5.437,32.439 C5.139,32.439 4.899,32.202 4.899,31.910 L4.899,31.899 C4.899,31.606 5.139,31.370 5.437,31.370 L19.572,31.370 C19.870,31.370 20.110,31.606 20.110,31.899 L20.110,31.910 C20.110,32.202 19.869,32.439 19.572,32.439 ZM19.572,29.231 L5.437,29.231 C5.139,29.231 4.899,28.994 4.899,28.701 L4.899,28.691 C4.899,28.399 5.139,28.162 5.437,28.162 L19.572,28.162 C19.870,28.162 20.110,28.399 20.110,28.691 L20.110,28.701 C20.110,28.994 19.869,29.231 19.572,29.231 ZM19.572,26.023 L5.437,26.023 C5.139,26.023 4.899,25.786 4.899,25.493 L4.899,25.483 C4.899,25.190 5.139,24.954 5.437,24.954 L19.572,24.954 C19.870,24.954 20.110,25.190 20.110,25.483 L20.110,25.493 C20.110,25.786 19.869,26.023 19.572,26.023 ZM19.572,22.815 L5.437,22.815 C5.139,22.815 4.899,22.578 4.899,22.285 L4.899,22.275 C4.899,21.982 5.139,21.745 5.437,21.745 L19.572,21.745 C19.870,21.745 20.110,21.982 20.110,22.275 L20.110,22.285 C20.110,22.578 19.869,22.815 19.572,22.815 ZM19.572,19.606 L5.437,19.606 C5.139,19.606 4.899,19.370 4.899,19.077 L4.899,19.066 C4.899,18.774 5.139,18.537 5.437,18.537 L19.572,18.537 C19.870,18.537 20.110,18.774 20.110,19.066 L20.110,19.077 C20.110,19.370 19.869,19.606 19.572,19.606 ZM19.567,12.655 L17.938,12.655 C17.637,12.655 17.394,12.416 17.394,12.121 L17.394,10.517 C17.394,10.222 17.637,9.982 17.938,9.982 L19.567,9.982 C19.867,9.982 20.110,10.222 20.110,10.517 L20.110,12.121 C20.110,12.415 19.867,12.655 19.567,12.655 ZM15.221,12.656 L13.591,12.656 C13.292,12.656 13.047,12.416 13.048,12.121 L13.048,10.517 C13.048,10.222 13.292,9.983 13.591,9.983 L15.221,9.983 C15.520,9.983 15.763,10.222 15.763,10.517 L15.763,12.121 C15.763,12.416 15.520,12.656 15.221,12.656 ZM11.418,12.656 L9.788,12.656 C9.489,12.656 9.245,12.416 9.245,12.121 L9.245,10.517 C9.245,10.222 9.489,9.983 9.788,9.983 L11.418,9.983 C11.718,9.983 11.961,10.222 11.961,10.517 L11.961,12.121 C11.961,12.416 11.718,12.656 11.418,12.656 ZM7.072,12.656 L5.442,12.656 C5.142,12.656 4.899,12.416 4.899,12.121 L4.899,10.517 C4.899,10.222 5.142,9.983 5.442,9.983 L7.072,9.983 C7.371,9.983 7.615,10.222 7.615,10.517 L7.615,12.121 C7.615,12.416 7.371,12.656 7.072,12.656 ZM5.437,15.329 L14.683,15.329 C14.980,15.329 15.221,15.566 15.221,15.859 L15.221,15.869 C15.221,16.162 14.980,16.399 14.683,16.399 L5.437,16.399 C5.139,16.399 4.899,16.162 4.899,15.869 L4.899,15.859 C4.899,15.566 5.139,15.329 5.437,15.329 Z"/>
</g>
</svg>

<svg xmlns="http://www.w3.org/2000/svg" width="25" height="40"><defs><filter id="a"><feFlood flood-color="#E5493A" flood-opacity="1" result="floodOut"/><feComposite operator="atop" in="floodOut" in2="SourceGraphic" result="compOut"/><feBlend in="compOut" in2="SourceGraphic"/></filter></defs><g filter="url(#a)"><path fill-rule="evenodd" d="M21.74 41H3.27A3.24 3.24 0 010 37.78V4.1C0 2.33 1.47.9 3.27.9h18.47C23.54.9 25 2.32 25 4.1V37.8c0 1.77-1.46 3.2-3.26 3.2zm-9.24-1.2c.98 0 1.77-.79 1.77-1.75 0-.95-.8-1.73-1.77-1.73s-1.76.78-1.76 1.73c0 .96.8 1.74 1.76 1.74zm3-35.98a.8.8 0 00-.81-.79h-4.37a.8.8 0 00-.8.8v.01c0 .44.36.8.8.8h4.37a.8.8 0 00.8-.8v-.02zm6.78 3.49c0-.3-.24-.54-.54-.54H3.27c-.3 0-.54.25-.54.54v27.27c0 .3.24.53.54.53h18.47c.3 0 .54-.24.54-.53V7.3zm-2.7 25.13H5.43a.53.53 0 01-.54-.53v-.01c0-.3.24-.53.54-.53h14.13c.3 0 .54.24.54.53v.01c0 .3-.24.53-.54.53zm0-3.2H5.43a.53.53 0 01-.54-.54c0-.3.24-.54.54-.54h14.13c.3 0 .54.24.54.53v.01c0 .3-.24.53-.54.53zm0-3.22H5.43a.53.53 0 01-.54-.53c0-.3.24-.54.54-.54h14.13c.3 0 .54.24.54.53v.01c0 .3-.24.53-.54.53zm0-3.2H5.43a.53.53 0 01-.54-.54c0-.3.24-.54.54-.54h14.13a.53.53 0 110 1.07zm0-3.21H5.43a.53.53 0 01-.54-.53v-.01c0-.3.24-.53.54-.53h14.13c.3 0 .54.23.54.53 0 .3-.24.54-.54.54zm-.01-6.96h-1.63a.54.54 0 01-.55-.53v-1.6c0-.3.25-.54.55-.54h1.63c.3 0 .54.24.54.54v1.6c0 .3-.24.54-.54.54zm-4.35 0H13.6a.54.54 0 01-.54-.53v-1.6c0-.3.24-.54.54-.54h1.63c.3 0 .54.24.54.54v1.6c0 .3-.24.54-.54.54zm-3.8 0H9.79a.54.54 0 01-.54-.53v-1.6c0-.3.24-.54.54-.54h1.63c.3 0 .54.24.54.54v1.6c0 .3-.24.54-.54.54zm-4.35 0H5.44a.54.54 0 01-.54-.53v-1.6c0-.3.24-.54.54-.54h1.63c.3 0 .54.24.54.54v1.6c0 .3-.24.54-.54.54zm-1.63 2.68h9.24c.3 0 .54.24.54.53 0 .3-.24.54-.54.54H5.44a.53.53 0 01-.54-.53v-.01c0-.3.24-.53.54-.53z"/></g></svg>
